X:1
T:059 - Saudai Emanuel
T:Letra: D. R. Van Sickle
T:Trad.: Otis Pendleton Maddox (1874-1955)
T:Música: Charles Hutchinson Gabriel (1856-1932)
L:1/16
M:4/4
Q:1/4=100
K:Bb
V:1
F4| "Bb"B6 c2 d4B4| "Eb"B6 G2 "Bb"F4B4| "F7"A8- A3G F3G | "Bb"F8 D4F4| B6 c2 d4B4| "Eb"B6 G2 "Bb"F4G4| "F/C"A8- (3A2(B2A2) (3("C7"G2^F2)G2 | "F"c8 c4 "Bb"d4| "F7"e6 d2 c4(=B2c2) | "Bb"d6 c2 B4"Dm"A4| "Eb"G4A4B4c4| "D"d4d4 "F7"He4e4| "Bb"d6 c2 B4d4| ("Eb"c2B2) (A2G2) "Bb"F4B4| B8- "Bb7"B4 B4| B8- "Eb"B4 B4| "Bb/F"f12 g4|f12 B4| d8 "F7"c8 | "Bb"B12 z4|| "Bb"d12- d3A | G3F F3A G3F F3z | "F7"e12- e3A | G3F F3A G3F F3z | (3e2G2A2 (3A2B2=B2 c3B c4| (3"Bb"d2F2G2 (3A2B2c2 d3^c d4| "F"c4c4c4 "C7"c4| "F"c8 "Bb"F4- "F7"HF4 | "Bb"d12- d3A | G3F F3A G3F F3z | "F7"e12- e3A | G3F F3A G3F F3z | "Bb"d4A4 B3c d3e |[Bf]12 "Eb"[Bg]4| "Bb/F"[Bf]6 [FB]2 H[Bd]4 "F7"H[Fc]4|"Bb"[FB]12 |]
w: 1.~Sau-da-mos-te,ó E-ma-nu-el! A ti_ lou-vo-res da-mos; De co-ra-ção, sim, to-dos nós A ti_ nos_ en_tre-ga-mos; Em hon-raa ti, Se_nhor e Rei, Os an-jos can-tam lá no céu, E lá res-so-a teu_ lou_vor; Sau-dai!_ Sau-dai!_ Sau-dai, sau-dai E-ma-nu-el!     Rei,_ E-ma-nu-el, E-ma-nu-el! Rei,_ E-ma-nu-el, E-ma-nu-el!    Sa-be-do-ri-a, po-der sem fim,    Hon-ras e gló-riaas na-ções te dêem      Ho-jee pa-ra sem-pre!_    Rei,_ E-ma-nu-el, E-ma-nu-el! Rei,_ E-ma-nu-el, E-ma-nu-el!    Rei dos reis e Sal-va-dor!    Sau-dai E-ma-nu-el!
w: 2.~Sau-da-mos-te,ó E-ma-nu-el! Os san_tos te ro-dei-am; Os reis da ter-ra seer-gue-rão A pro_cla_mar_ teu rei-no, En-quan-toos fi-lhos_ já com Deus, Cer-can-doo tro-no lá nos céus, En-to-am hi-nos i_mor_tais; Sau-dai!_ Sau-dai!_ Sau-dai, sau-dai E-ma-nu-el!
w: 3.~Sau-da-mos-te,ó E-ma-nu-el! Ó Rei_ dos reis e-ter-no! Ven-ces-teas hos-tes in-fer-nais; Tu és_ o_ni_po-ten-te! Ja-mais a mor-te_ rei-na-rá. Nem mal al-gum do-mi-na-rá E-ter-na gló-ria se_jaa_ ti. Sau-dai!_ Sau-dai!_ Sau-dai, sau-dai E-ma-nu-el!
W: 
W:
W: 1. Saudamos-te, ó Emanuel!
W: A ti louvores damos;
W: De coração, sim, todos nós
W: A ti nos entregamos;
W: Em honra a ti, Senhor e Rei,
W: Os anjos cantam lá no céu,
W: E lá ressoa teu louvor;
W: Saudai! Saudai!
W: Saudai, saudai Emanuel!
W: 
W:    (Estribilho)
W:    Rei, Emanuel, Emanuel!
W:    Rei, Emanuel, Emanuel!
W:    Sabedoria, poder sem fim,
W:    Honras e glória as nações te dêem  
W:    Hoje e para sempre!
W:    Rei, Emanuel, Emanuel!
W:    Rei, Emanuel, Emanuel!
W:    Rei dos reis e Salvador!
W:    Saudai Emanuel!
W: 
W:
W:
W: 2. Saudamos-te, ó Emanuel!
W: Os santos te rodeiam;
W: Os reis da terra se erguerão
W: A proclamar teu reino,
W: Enquanto os filhos já com Deus,
W: Cercando o trono lá nos céus,
W: Entoam hinos imortais;
W: Saudai! Saudai!
W: Saudai, saudai Emanuel!
W: 
W: 3. Saudamos-te, ó Emanuel!
W: Ó Rei dos reis eterno!
W: Venceste as hostes infernais;
W: Tu és onipotente!
W: Jamais a morte reinará.
W: Nem mal algum dominará
W: Eterna glória seja a ti.
W: Saudai! Saudai!
W: Saudai, saudai Emanuel!
W: 
W: 





